DigitFlip/Resources/GlyphSets/classic/lowercase_c.svg

<?xml version="1.0" encoding="UTF-8" standalone="no"?>
<!-- Created with Inkscape (http://www.inkscape.org/) -->

<svg
   width="1000"
   height="1000"
   viewBox="0 0 264.58333 264.58333"
   version="1.1"
   id="svg1"
   xmlns="http://www.w3.org/2000/svg"
   xmlns:svg="http://www.w3.org/2000/svg">
  <defs
     id="defs1" />
  <g
     id="layer1"
     transform="matrix(0.75030302,0,0,0.71796036,38.083963,6.863903)">
    <path
       id="path8"
       style="fill:#000000;stroke:none;stroke-width:5.16501"
       d="m 132.29166,39.687499 a 99.21875,90.3993 0 0 0 -99.218744,90.399131 99.21875,90.3993 0 0 0 99.218744,90.39965 99.21875,90.3993 0 0 0 99.21875,-90.39965 99.21875,90.3993 0 0 0 -99.21875,-90.399131 z m 0,9.394776 a 85.989578,80.74826 0 0 1 85.98959,80.748045 85.989578,80.74826 0 0 1 -85.98959,80.74856 85.989578,80.74826 0 0 1 -85.989577,-80.74856 85.989578,80.74826 0 0 1 85.989577,-80.748045 z" />
  </g>
  <rect
     style="fill:#ffffff;stroke:none;stroke-width:2.44162"
     id="rect1"
     width="14.888825"
     height="23.903347"
     x="62.898666"
     y="87.438736" />
</svg>

<?xml version="1.0" encoding="UTF-8" standalone="no"?>
<!-- Created with Inkscape (http://www.inkscape.org/) -->

<svg
   width="1000"
   height="1000"
   viewBox="0 0 264.58333 264.58333"
   version="1.1"
   id="svg1"
   xmlns="http://www.w3.org/2000/svg"
   xmlns:svg="http://www.w3.org/2000/svg">
  <defs
     id="defs1" />
  <g
     id="layer1">
    <path
       id="path8"
       style="fill:#000000;stroke:none;stroke-width:5.16501"
       d="M 132.29166 39.687499 A 99.21875 90.3993 0 0 0 33.072916 130.08663 A 99.21875 90.3993 0 0 0 132.29166 220.48628 A 99.21875 90.3993 0 0 0 231.51041 130.08663 A 99.21875 90.3993 0 0 0 132.29166 39.687499 z M 132.29166 49.082275 A 85.989578 80.74826 0 0 1 218.28125 129.83032 A 85.989578 80.74826 0 0 1 132.29166 210.57888 A 85.989578 80.74826 0 0 1 46.302083 129.83032 A 85.989578 80.74826 0 0 1 132.29166 49.082275 z " />
  </g>
  <rect
     style="fill:#ffffff;stroke-width:3.32666;stroke:none"
     id="rect1"
     width="19.84375"
     height="33.293407"
     x="33.072914"
     y="112.22742" />
</svg>
